X:389
T: "Albertus Magnus"
N: Z1069
O: Europa, Mitteleuropa, Deutschland, Rhein
R: Romanze, Ballade
M: 6/8
L: 1/16
K: G
D2 | G3GG2A4B2 | cBA4z4
c2 | B2G2c2d2_e2d2 | c6z4
G2 | c4d2_e2d2c2 | d2A4z4
c2 | _B2A2G2A2B2A2 | G6z4

@@@ Tune index: 10147
